X:177
T:One Thing's Needful
%%stretchlast false
M:4/4
L:1/4
K:C clef=C1
"^I"[CEcg] "^V¹"[B,DGg] "^vi"[A,Eca] "^V"[G,Gdb] | "^I"[CGec'] "^vi"[A,Aec'] [EAeb] "^III"[E,^Geb] | "^IV"[F,Aca] "^vi"[A,Eca] "^V¹"[B,Ddg] "^I"[CGce] | "^IV"[F,Acf] "^V"[G,GBd] "^I"[CEc]2 | [CEcg] "^V¹"[B,DGg] "^vi"[A,Eca] "^V"[G,Gdb] | "^I"[CGec'] "^vi"[A,Aec'] [EAeb] "^III"[E,^Geb] | "^IV"[F,Aca] "^vi"[A,Eca] "^V¹"[B,Ddg] "^I"[CGce] | "^IV"[F,Acf] "^V"[G,GBd] "^I"[CEc]2 | [CEc]/ "^vii°7³"[CFBd]/ "^I"[CGce] "^iii"[EGBe] "^I"[CGce] | [G,Gcd] "^II7¹"[^F,Acd] "^V"[G,GBd]/ "^I²"[G,Gce]/ "^ii"[DAdf] | "^IV¹"[A,Acf] "^V7¹"[B,Gdf] "^I"[CGde] [CGce] | [CGce] "^IV"[F,Fca] "^vi"[A,Eca] "^ii"[DFda] | "^V¹"[B,Ddg] "^V"[G,GBg]/ "^V7"[G,GBf]/ "^I"[CGce] "^ii¹"[F,Adf] | "^I²"[G,Gce] "^V7"[G,FBd] "^I"[CEGc] [CEGc] | [CEc]/ "^vii°7³"[CFBd]/ "^I"[CGce] "^iii"[EGBe] "^I"[CGce] | [G,Gcd] "^II7¹"[^F,Acd] "^V"[G,GBd]/ "^I²"[G,Gce]/ "^ii"[DAdf] | "^IV¹"[A,Acf] "^V7¹"[B,Gdf] "^I"[CGce]2 | [CGce] "^IV"[F,Fca] "^vi"[A,Eca] "^ii"[DFda] | "^V¹"[B,Ddg] "^V"[G,GBg]/ "^V7"[G,GBf]/ "^I"[CGce] "^ii¹"[F,Adf] | "^I²"[G,Gce] "^V7"[G,FBd] "^I"[C,Ec]3 |]
